X:2297
L:1/8
Q:1/8=180
M:4/4
K:D
 A,D D2 DEFA | BdBA Bd d2 | A,D D2 BAGF | EFGA Bcde | A,D D2 DEFA | B2 dB A2 FA | fa a2 fedA |1 
 B2 BA BAFD :|2 BdBA Bd || BA |: Be e2 efge | Ad d2 defd | FB B2 BcdB |1 cdef ge e2 :|2 
 Bdef gfe |]: g | fedB dBAF | B,EGB e3 d | B2 BA Bdeg | fddc cdBA | BdBA FAFD | B,E E2 A,D D2 |1 
 B,EGB e2 a :|2 B,EA,C !fermata!D4 |]

